static/logos/discourse-wordmark-color.svg

<svg width="100" height="28" viewBox="0 0 100 28" fill="none" xmlns="http://www.w3.org/2000/svg">
<path d="M30.4935 5.77143C30.9218 5.76564 31.3332 5.93886 31.6286 6.24935C31.9382 6.55543 32.1091 6.97501 32.1013 7.41039C32.1091 7.84091 31.94 8.25582 31.6338 8.55844C31.3431 8.86582 30.9374 9.03808 30.5143 9.03377C30.0826 9.03977 29.6681 8.86452 29.3714 8.55065C29.061 8.23971 28.8904 7.81592 28.8987 7.37662C28.8987 6.49356 29.613 5.77688 30.4961 5.77403L30.4935 5.77143ZM29.2364 11.239H31.7506V21.7221H29.2364V11.239ZM40.1714 12.8987L38.613 14.4571C37.9792 13.8234 37.4026 13.5065 36.8831 13.5065C36.6488 13.4929 36.4164 13.5558 36.2208 13.6857C36.0719 13.7857 35.9823 13.9531 35.9818 14.1325C35.9826 14.2718 36.0366 14.4055 36.1325 14.5065C36.3564 14.7026 36.6096 14.8621 36.8831 14.9792L37.8052 15.439C38.7748 15.9186 39.4416 16.4069 39.8052 16.9039C40.6725 18.1535 40.4865 19.8512 39.3688 20.8831C38.7143 21.4788 37.8371 21.7766 36.7377 21.7766C35.3634 21.8146 34.0582 21.1746 33.2468 20.0649L34.8052 18.3792C35.0964 18.7197 35.4488 19.0025 35.8442 19.213C36.16 19.4011 36.5161 19.5107 36.8831 19.5325C37.1701 19.5469 37.4532 19.4625 37.6857 19.2935C37.8699 19.1685 37.9829 18.9628 37.9896 18.7403C37.9896 18.3524 37.6242 17.9749 36.8935 17.6078L36.0468 17.1844C34.426 16.3671 33.6156 15.3446 33.6156 14.1169C33.6096 13.3383 33.9444 12.5961 34.5325 12.0857C35.1735 11.5129 36.0112 11.2104 36.8701 11.2416C38.1714 11.2344 39.3977 11.8504 40.1688 12.8987H40.1714ZM51.8857 13.5247L49.7922 14.6753C49.4662 14.3127 49.0694 14.0209 48.626 13.8182C48.1958 13.6505 47.7369 13.5692 47.2753 13.5792C46.4322 13.5424 45.6096 13.8456 44.9922 14.4208C44.4088 14.9831 44.0914 15.7668 44.1195 16.5766C44.094 17.3565 44.3987 18.1109 44.9584 18.6545C45.5527 19.2148 46.3475 19.5124 47.1636 19.4805C48.2891 19.4805 49.1655 19.097 49.7922 18.3299L51.7766 19.6883C50.7013 21.0857 49.1844 21.7844 47.226 21.7844C45.4631 21.7844 44.0831 21.2649 43.0857 20.226C41.921 19.0554 41.3808 17.4019 41.6291 15.7695C41.8777 14.1371 42.8855 12.7192 44.3455 11.9481C45.246 11.4693 46.253 11.2254 47.2727 11.239C48.2005 11.224 49.119 11.4278 49.9532 11.8338C50.7314 12.2229 51.3966 12.8051 51.8857 13.5247ZM58.0805 11.239C59.0166 11.2363 59.9369 11.4809 60.7481 11.9481C62.3914 12.8718 63.4055 14.6135 63.3974 16.4987C63.4016 17.4294 63.1587 18.3445 62.6935 19.1507C62.2426 19.9567 61.581 20.6247 60.7792 21.0831C59.9631 21.5483 59.0382 21.7885 58.0987 21.7792C56.7119 21.8001 55.379 21.2441 54.4182 20.2442C53.4192 19.2641 52.8678 17.9161 52.8935 16.5169C52.8805 13.6289 55.2005 11.2718 58.0883 11.239H58.0805ZM58.1221 13.6078C57.3857 13.5908 56.6766 13.8872 56.1714 14.4234C55.646 14.9851 55.3657 15.7327 55.3922 16.5013C55.36 17.2832 55.6405 18.0459 56.1714 18.6208C56.6758 19.1575 57.386 19.4525 58.1221 19.4312C58.8647 19.4514 59.5805 19.1526 60.0883 18.6104C60.6184 18.0391 60.899 17.28 60.8675 16.5013C60.8977 15.7266 60.6171 14.972 60.0883 14.4052C59.5764 13.8716 58.861 13.5816 58.1221 13.6078ZM64.9351 11.4987H67.4779V16.3247C67.4455 16.9834 67.5101 17.6433 67.6701 18.2831C67.7829 18.6258 68.001 18.924 68.2935 19.1351C68.6049 19.3453 68.9751 19.4517 69.3507 19.439C69.7288 19.4514 70.1016 19.3471 70.4182 19.1403C70.7239 18.9238 70.9522 18.6153 71.0701 18.2597C71.174 17.9706 71.226 17.3532 71.226 16.4078V11.4987H73.7403V15.7455C73.7403 17.4961 73.6018 18.6935 73.3247 19.3377C73.0247 20.0823 72.5034 20.7169 71.8312 21.1558C71.0738 21.603 70.2034 21.8221 69.3247 21.787C68.2252 21.787 67.3358 21.5411 66.6571 21.0494C65.967 20.5406 65.4639 19.8185 65.226 18.9948C65.0319 18.3818 64.9351 17.2736 64.9351 15.6701V11.4987ZM75.4052 11.4987H77.561V12.761C77.7603 12.3049 78.0823 11.9129 78.4909 11.6286C78.8657 11.3745 79.3083 11.2397 79.761 11.2416C80.1174 11.249 80.4675 11.3378 80.7844 11.5013L80.0052 13.6675C79.7821 13.5409 79.5338 13.4655 79.2779 13.4468C78.8901 13.4468 78.5629 13.6866 78.2961 14.1662C78.0294 14.6459 77.8961 15.5853 77.8961 16.9844V21.5221H75.4L75.4052 11.4987ZM87.9039 12.8987L86.3455 14.4571C85.7135 13.8234 85.1395 13.5065 84.6234 13.5065C84.3891 13.4929 84.1566 13.5558 83.961 13.6857C83.8122 13.7857 83.7226 13.9531 83.7221 14.1325C83.7229 14.2718 83.7769 14.4055 83.8727 14.5065C84.0971 14.6996 84.3504 14.8565 84.6234 14.9714L85.5455 15.4312C86.5151 15.9108 87.1818 16.3991 87.5455 16.8961C88.4117 18.146 88.2257 19.8429 87.1091 20.8753C86.4545 21.471 85.5774 21.7688 84.4779 21.7688C83.0995 21.8096 81.7896 21.1683 80.9766 20.0545L82.5351 18.3688C82.8262 18.7094 83.1784 18.9922 83.574 19.2026C83.8948 19.3921 84.2566 19.5009 84.6286 19.5195C84.9156 19.5339 85.1987 19.4496 85.4312 19.2805C85.6039 19.1538 85.7083 18.9544 85.7143 18.7403C85.7143 18.3524 85.3488 17.9749 84.6182 17.6078L83.7714 17.1844C82.1506 16.3671 81.3403 15.3446 81.3403 14.1169C81.3343 13.3383 81.6691 12.5961 82.2571 12.0857C82.8982 11.5132 83.7358 11.2107 84.5948 11.2416C85.8961 11.2344 87.1223 11.8504 87.8935 12.8987H87.9039ZM99.8494 17.2364H91.7714C91.861 17.8992 92.1943 18.5049 92.7065 18.9351C93.2569 19.3707 93.9455 19.5947 94.6468 19.5662C95.5546 19.58 96.4291 19.2247 97.0701 18.5818L99.1896 19.5766C98.7091 20.2839 98.0556 20.8562 97.2909 21.239C96.4681 21.616 95.5699 21.7999 94.6649 21.7766C93.0927 21.7766 91.8122 21.2805 90.8234 20.2883C89.8421 19.3026 89.3094 17.9566 89.3507 16.5662C89.3065 15.1483 89.84 13.7732 90.8286 12.7558C91.7974 11.7526 93.1436 11.2031 94.5377 11.2416C96.1151 11.2416 97.3992 11.7463 98.3896 12.7558C99.38 13.7654 99.8745 15.0996 99.8727 16.7584L99.8494 17.2364ZM97.3351 15.2545C97.1753 14.7036 96.8327 14.2235 96.3636 13.8935C95.8662 13.5437 95.2704 13.3617 94.6623 13.374C93.9987 13.3616 93.3494 13.5689 92.8156 13.9636C92.4065 14.3144 92.0896 14.7604 91.8935 15.2623L97.3351 15.2545ZM13.4727 0C6.15844 0 0 5.92987 0 13.2468V26.9636L13.4701 26.9507C20.7844 26.9507 26.7169 20.7922 26.7169 13.4779C26.7169 6.16364 20.7792 0 13.4727 0Z" fill="black"/>
<path d="M13.6023 5.12732C10.7093 5.12903 8.03062 6.65267 6.55049 9.13836C5.07039 11.624 5.00719 14.7051 6.38415 17.2494L4.89844 22.0286L10.2335 20.8234C13.2886 22.1999 16.8735 21.5817 19.2911 19.2615C21.7087 16.9413 22.4738 13.3848 21.2242 10.2757C19.9745 7.16667 16.961 5.12896 13.6101 5.12732H13.6023Z" fill="#FFF9AE"/>
<path d="M20.0224 18.4192C17.6903 21.3612 13.6593 22.3459 10.2335 20.8104L4.89844 22.0312L10.3296 21.3896C13.9301 23.4988 18.54 22.5708 21.044 19.2328C23.548 15.8948 23.149 11.2094 20.1166 8.3429C22.3933 11.328 22.3546 15.4773 20.0224 18.4192Z" fill="#00AEEF"/>
<path d="M19.5631 16.8595C17.551 20.0288 13.645 21.429 10.0777 20.2598L4.89844 22.0312L10.2335 20.8234C14.0331 22.5398 18.5158 21.1348 20.6561 17.5568C22.7964 13.9788 21.9142 9.36469 18.6049 6.82861C21.1807 9.55965 21.5753 13.6902 19.5631 16.8595Z" fill="#00A94F"/>
<path d="M6.87506 17.4312C5.38813 13.847 6.6135 9.71112 9.81296 7.51543C13.0124 5.31974 17.3122 5.66377 20.1218 8.34026C17.5197 4.92543 12.726 4.0919 9.12394 6.42792C5.52187 8.76392 4.32766 13.4807 6.38415 17.2494L4.89844 22.0286L6.87506 17.4312Z" fill="#F15D22"/>
<path d="M6.38093 17.2494C4.53592 13.8414 5.32503 9.60749 8.27384 7.093C11.2226 4.57853 15.5281 4.4683 18.6017 6.82858C15.6533 3.72406 10.8142 3.40635 7.48522 6.09874C4.15623 8.79116 3.45503 13.5897 5.87444 17.1221L4.89781 22.0312L6.38093 17.2494Z" fill="#D0232B"/>
</svg>

<svg xmlns="http://www.w3.org/2000/svg" width="228.571" height="64" fill="none" viewBox="0 0 100 28"><path fill="#000" d="M30.494 5.771c.428-.005.84.168 1.135.478.31.306.48.726.472 1.161.008.43-.161.846-.467 1.148a1.52 1.52 0 0 1-1.12.476 1.543 1.543 0 0 1-1.143-.483 1.618 1.618 0 0 1-.472-1.174c0-.883.714-1.6 1.597-1.603l-.002-.003Zm-1.258 5.468h2.515v10.483h-2.515V11.24Zm10.935 1.66-1.558 1.558c-.634-.634-1.21-.95-1.73-.95a1.084 1.084 0 0 0-.662.179.54.54 0 0 0-.088.82c.223.197.477.356.75.473l.922.46c.97.48 1.637.968 2 1.465a3.05 3.05 0 0 1-.436 3.98c-.655.595-1.532.893-2.631.893a4.181 4.181 0 0 1-3.491-1.712l1.558-1.686c.291.34.644.623 1.04.834.315.188.671.298 1.038.32.287.014.57-.07.803-.24a.694.694 0 0 0 .304-.553c0-.388-.366-.765-1.096-1.132l-.847-.424c-1.621-.817-2.431-1.84-2.431-3.067a2.662 2.662 0 0 1 .916-2.031 3.327 3.327 0 0 1 2.338-.844 4.067 4.067 0 0 1 3.299 1.657h.002Zm11.715.626-2.094 1.15a3.557 3.557 0 0 0-1.166-.857 3.51 3.51 0 0 0-1.35-.239 3.148 3.148 0 0 0-2.284.842 2.857 2.857 0 0 0-.872 2.156 2.77 2.77 0 0 0 .838 2.077c.595.56 1.39.858 2.206.826 1.125 0 2.002-.383 2.628-1.15l1.985 1.358c-1.076 1.398-2.593 2.096-4.551 2.096-1.763 0-3.143-.52-4.14-1.558a5.208 5.208 0 0 1 1.26-8.278 6.063 6.063 0 0 1 2.927-.709 5.908 5.908 0 0 1 2.68.595c.778.389 1.444.971 1.933 1.69Zm6.194-2.286a5.314 5.314 0 0 1 2.668.71 5.195 5.195 0 0 1 2.65 4.55 5.259 5.259 0 0 1-.705 2.652 5.086 5.086 0 0 1-1.914 1.932 5.306 5.306 0 0 1-2.68.696 5 5 0 0 1-3.68-1.535 5.09 5.09 0 0 1-1.525-3.727 5.254 5.254 0 0 1 5.194-5.278h-.008Zm.042 2.369a2.598 2.598 0 0 0-1.95.815 2.896 2.896 0 0 0-.78 2.078 2.946 2.946 0 0 0 .78 2.12 2.575 2.575 0 0 0 1.95.81 2.597 2.597 0 0 0 1.966-.82c.53-.572.811-1.331.78-2.11.03-.774-.25-1.529-.78-2.096a2.597 2.597 0 0 0-1.966-.797Zm6.813-2.11h2.543v4.827a6.713 6.713 0 0 0 .192 1.958c.113.343.331.641.623.852.312.21.682.317 1.058.304.378.012.75-.092 1.067-.299.306-.216.534-.525.652-.88.104-.29.156-.907.156-1.852v-4.91h2.514v4.248c0 1.75-.138 2.947-.415 3.592-.3.744-.822 1.379-1.494 1.818a4.571 4.571 0 0 1-2.506.631c-1.1 0-1.99-.246-2.668-.738a3.896 3.896 0 0 1-1.431-2.054c-.194-.613-.29-1.721-.29-3.325V11.5Zm10.47 0h2.156v1.263c.2-.456.521-.848.93-1.132a2.246 2.246 0 0 1 1.27-.387c.356.007.707.096 1.023.26l-.779 2.165a1.729 1.729 0 0 0-.727-.22c-.388 0-.715.24-.982.72-.267.479-.4 1.418-.4 2.817v4.538H75.4l.005-10.023Zm12.499 1.4-1.558 1.56c-.633-.635-1.207-.951-1.723-.951a1.084 1.084 0 0 0-.662.179.54.54 0 0 0-.088.82c.224.194.477.35.75.465l.922.46c.97.48 1.637.968 2 1.465a3.052 3.052 0 0 1-.436 3.98c-.654.595-1.532.893-2.631.893a4.182 4.182 0 0 1-3.501-1.714l1.558-1.686c.291.34.643.623 1.039.834a2.3 2.3 0 0 0 1.055.317c.287.014.57-.07.802-.24a.694.694 0 0 0 .283-.54c0-.388-.365-.765-1.096-1.132l-.847-.424c-1.62-.817-2.43-1.84-2.43-3.067a2.662 2.662 0 0 1 .916-2.031 3.33 3.33 0 0 1 2.338-.844 4.067 4.067 0 0 1 3.299 1.657h.01Zm11.945 4.338h-8.078c.09.663.423 1.269.936 1.7.55.435 1.239.659 1.94.63a3.35 3.35 0 0 0 2.423-.984l2.12.995a5.002 5.002 0 0 1-1.9 1.662 5.937 5.937 0 0 1-2.625.538c-1.572 0-2.853-.497-3.842-1.489a5.063 5.063 0 0 1-1.472-3.722 5.234 5.234 0 0 1 1.478-3.81 4.966 4.966 0 0 1 3.709-1.514c1.577 0 2.861.504 3.852 1.514.99 1.01 1.484 2.344 1.483 4.002l-.024.478Zm-2.514-1.982a2.523 2.523 0 0 0-.971-1.36 2.857 2.857 0 0 0-1.702-.52 3.012 3.012 0 0 0-1.846.59c-.41.35-.726.796-.922 1.298l5.441-.008ZM13.473 0C6.158 0 0 5.93 0 13.247v13.717l13.47-.013c7.314 0 13.247-6.159 13.247-13.473C26.717 6.164 20.779 0 13.473 0Z"/><path fill="#FFF9AE" d="M13.602 5.127A8.213 8.213 0 0 0 6.384 17.25l-1.486 4.78 5.335-1.206A8.21 8.21 0 1 0 13.61 5.127h-.008Z"/><path fill="#00AEEF" d="M20.022 18.42a8.208 8.208 0 0 1-9.788 2.39l-5.336 1.221 5.432-.641a8.208 8.208 0 0 0 9.787-13.047 8.208 8.208 0 0 1-.095 10.076Z"/><path fill="#00A94F" d="M19.563 16.86a8.208 8.208 0 0 1-9.485 3.4l-5.18 1.771 5.335-1.208A8.208 8.208 0 0 0 18.605 6.83a8.208 8.208 0 0 1 .958 10.03Z"/><path fill="#F15D22" d="M6.875 17.431a8.21 8.21 0 0 1 13.247-9.09 8.21 8.21 0 0 0-13.738 8.908l-1.486 4.78 1.977-4.598Z"/><path fill="#D0232B" d="M6.38 17.25A8.21 8.21 0 0 1 18.603 6.828 8.21 8.21 0 0 0 5.874 17.122l-.976 4.91 1.483-4.783Z"/></svg>
